icons/type-icons/icons/application-x-ace.svg

<?xml version="1.0" encoding="UTF-8"?><svg width="22" height="22" version="1.1" xmlns="http://www.w3.org/2000/svg">
 <g id="layer1" transform="translate(-326 -534.36)">
  <path id="rect5669" transform="translate(326 534.36)" d="m3 3v16h16v-16h-16zm1 1h6v1h1v-1h7v14h-14v-14zm7 1v1h1v-1h-1zm0 1h-1v1h1v-1zm0 1v1h1v-1h-1zm0 1h-1v1h1v-1zm0 1v1h1v-1h-1zm0 1h-1v1h1v-1zm0 1v1h1v-1h-1zm0 1h-1v2h2v-1h-1v-1z" fill="#3a539b" stroke-width="2"/>
 </g>
</svg>

<?xml version="1.0" encoding="UTF-8" standalone="no"?>

<!-- Created with Inkscape (http://www.inkscape.org/) -->
<svg width="22" version="1.1" xmlns="http://www.w3.org/2000/svg" height="22" xmlns:inkscape="http://www.inkscape.org/namespaces/inkscape">
 <defs id="defs3871"/>
 <metadata id="metadata3874"/>
 <g inkscape:label="Capa 1" inkscape:groupmode="layer" id="layer1" transform="matrix(1 0 0 1 -326 -534.3622)">
  <path style="fill:#3a539b;stroke-width:2" id="rect5669" d="M 3 3 L 3 19 L 19 19 L 19 3 L 3 3 z M 4 4 L 10 4 L 10 5 L 11 5 L 11 4 L 18 4 L 18 18 L 4 18 L 4 4 z M 11 5 L 11 6 L 12 6 L 12 5 L 11 5 z M 11 6 L 10 6 L 10 7 L 11 7 L 11 6 z M 11 7 L 11 8 L 12 8 L 12 7 L 11 7 z M 11 8 L 10 8 L 10 9 L 11 9 L 11 8 z M 11 9 L 11 10 L 12 10 L 12 9 L 11 9 z M 11 10 L 10 10 L 10 11 L 11 11 L 11 10 z M 11 11 L 11 12 L 12 12 L 12 11 L 11 11 z M 11 12 L 10 12 L 10 13 L 10 14 L 11 14 L 12 14 L 12 13 L 11 13 L 11 12 z " transform="matrix(1 0 0 1 326 534.3622)"/>
 </g>
</svg>
